X: 19452
T: Jackson's Babby
R: jig
M: 6/8
K: Gmajor
d|BGG DGG|BGG G2d|BGG DGG|AGA F2d|
BGG DGG|BGB d2c|BdB cAG|FDD D2:|:d|
gdc BAG|Bdd d2f|gdc BAG|FAA A2f|
gdc BAG|Bdd d2c|BdB cAG|FDD D2:|

